assets/icons/qvision/medical_services.svg

<svg xmlns="http://www.w3.org/2000/svg" enable-background="new 0 0 24 24" height="24" viewBox="0 0 24 24" width="24"><g><rect fill="none" height="24" width="24"/></g><g><g><path d="M20,6h-4V4c0-1.1-0.9-2-2-2h-4C8.9,2,8,2.9,8,4v2H4C2.9,6,2,6.9,2,8v12c0,1.1,0.9,2,2,2h16c1.1,0,2-0.9,2-2V8 C22,6.9,21.1,6,20,6z M10,4h4v2h-4V4z M16,15h-3v3h-2v-3H8v-2h3v-3h2v3h3V15z"/></g></g></svg>

<svg width="24" height="24" viewBox="0 0 24 24" fill="none" xmlns="http://www.w3.org/2000/svg">
<g clip-path="url(#clip0_147_5481)">
<path d="M20 6H16V4C16 2.9 15.1 2 14 2H10C8.9 2 8 2.9 8 4V6H4C2.9 6 2 6.9 2 8V20C2 21.1 2.9 22 4 22H20C21.1 22 22 21.1 22 20V8C22 6.9 21.1 6 20 6ZM10 4H14V6H10V4ZM16 15H13V18H11V15H8V13H11V10H13V13H16V15Z" fill="#323232"/>
</g>
<defs>
<clipPath id="clip0_147_5481">
<rect width="24" height="24" fill="white"/>
</clipPath>
</defs>
</svg>
